assets/Leafy green/Flat/leafy_green_flat.svg

<svg width="32" height="32" viewBox="0 0 32 32" fill="none" xmlns="http://www.w3.org/2000/svg">
<path d="M12.1222 5.38857C9.53223 4.03857 6.31223 4.97857 4.88223 7.54857C3.98223 9.16857 3.99223 11.0586 4.77223 12.5986C3.93223 12.9886 3.21223 13.6386 2.73223 14.4986C1.97223 15.8486 1.98223 17.4186 2.60223 18.7186C3.40223 20.3986 3.39223 22.3586 2.48223 23.9786C1.58975 25.5798 1.97581 27.5485 3.31218 28.699C4.46273 30.035 6.43119 30.4209 8.03225 29.5285C9.65225 28.6185 11.6122 28.6085 13.2922 29.4085C14.5922 30.0285 16.1622 30.0385 17.5122 29.2785C18.3722 28.7985 19.0222 28.0785 19.4122 27.2385C20.9522 28.0185 22.8422 28.0285 24.4622 27.1285C27.0322 25.6985 27.9722 22.4785 26.6222 19.8885C27.1022 19.7585 27.5822 19.5485 28.0222 19.2485C29.8722 17.9885 30.5322 15.5385 29.5722 13.5185C28.4222 11.0985 25.5022 10.1985 23.2022 11.4785C22.8622 11.6685 22.5623 11.8885 22.2922 12.1485C21.9891 11.6378 21.6139 11.1942 21.1868 10.8236C20.8163 10.3967 20.3728 10.0216 19.8622 9.71857C20.1222 9.44857 20.3422 9.14857 20.5322 8.80857C21.8122 6.50857 20.9122 3.58857 18.4922 2.43857C16.4722 1.47857 14.0222 2.13857 12.7622 3.98857C12.4622 4.42857 12.2522 4.90857 12.1222 5.38857Z" fill="#008463"/>
<path d="M23.9623 22.0685C26.0423 19.9885 26.0723 16.6385 24.0623 14.5185C24.4923 14.2585 24.8923 13.9285 25.2323 13.5185C26.6623 11.8085 26.6323 9.26854 25.1623 7.58854C23.4023 5.57854 20.3423 5.49854 18.4823 7.35854C18.2123 7.62854 17.9823 7.92854 17.7923 8.24854C15.6723 6.23854 12.3223 6.26854 10.2423 8.34854C8.93229 9.65854 8.4323 11.4785 8.7523 13.1685C7.84229 13.3185 6.97229 13.7485 6.27229 14.4485C5.17229 15.5385 4.7523 17.0485 5.0023 18.4585C5.3223 20.2885 4.77229 22.1685 3.46229 23.4885C1.98229 24.9685 1.98229 27.3685 3.46229 28.8485C4.94229 30.3285 7.3423 30.3285 8.8223 28.8485C10.1423 27.5285 12.0123 26.9885 13.8523 27.3085C15.2723 27.5585 16.7823 27.1285 17.8723 26.0385C18.5723 25.3385 18.9923 24.4685 19.1523 23.5585C20.8423 23.8685 22.6523 23.3785 23.9623 22.0685Z" fill="#86D72F"/>
<path d="M13.8639 11.4811C14.1276 11.3992 14.4077 11.5466 14.4896 11.8103L15.7441 15.8495L19.9886 11.605C20.1839 11.4098 20.5004 11.4098 20.6957 11.605C20.891 11.8003 20.891 12.1169 20.6957 12.3121L16.4516 16.5562L20.5002 17.8109C20.7639 17.8927 20.9115 18.1728 20.8297 18.4365C20.748 18.7003 20.4679 18.8479 20.2041 18.7661L15.6524 17.3554L11.5913 21.4166L14.4404 22.3011C14.7041 22.3829 14.8516 22.6631 14.7697 22.9268C14.6878 23.1905 14.4076 23.338 14.1439 23.2561L10.7922 22.2156L8.56571 24.4421C8.37045 24.6374 8.05387 24.6374 7.8586 24.4421C7.66334 24.2469 7.66334 23.9303 7.8586 23.735L10.0851 21.5085L9.04464 18.1568C8.96277 17.8931 9.11019 17.6129 9.37391 17.531C9.63764 17.4492 9.9178 17.5966 9.99968 17.8603L10.8842 20.7095L14.9451 16.6485L13.5346 12.1069C13.4527 11.8431 13.6001 11.563 13.8639 11.4811Z" fill="#C3EF3C"/>
</svg>

<svg xmlns="http://www.w3.org/2000/svg" width="32" height="32" fill="none"><path fill="#008463" d="M12.122 5.389c-2.59-1.35-5.81-.41-7.24 2.16-.9 1.62-.89 3.51-.11 5.05-.84.39-1.56 1.04-2.04 1.9a4.57 4.57 0 0 0-.13 4.22c.8 1.68.79 3.64-.12 5.26a3.794 3.794 0 0 0 .83 4.72 3.794 3.794 0 0 0 4.72.83c1.62-.91 3.58-.92 5.26-.12 1.3.62 2.87.63 4.22-.13.86-.48 1.51-1.2 1.9-2.04 1.54.78 3.43.79 5.05-.11 2.57-1.43 3.51-4.65 2.16-7.24.48-.13.96-.34 1.4-.64a4.58 4.58 0 0 0 1.55-5.73 4.575 4.575 0 0 0-7.28-1.37 5.4 5.4 0 0 0-1.105-1.325 5.4 5.4 0 0 0-1.325-1.105 4.575 4.575 0 0 0-1.37-7.28 4.58 4.58 0 0 0-5.73 1.55c-.3.44-.51.92-.64 1.4Z"/><path fill="#86D72F" d="M23.962 22.069a5.413 5.413 0 0 0 .1-7.55c.43-.26.83-.59 1.17-1 1.43-1.71 1.4-4.25-.07-5.93a4.573 4.573 0 0 0-6.68-.23c-.27.27-.5.57-.69.89a5.413 5.413 0 0 0-7.55.1 5.393 5.393 0 0 0-1.49 4.82c-.91.15-1.78.58-2.48 1.28a4.52 4.52 0 0 0-1.27 4.01c.32 1.83-.23 3.71-1.54 5.03a3.79 3.79 0 0 0 5.36 5.36c1.32-1.32 3.19-1.86 5.03-1.54a4.56 4.56 0 0 0 4.02-1.27c.7-.7 1.12-1.57 1.28-2.48 1.69.31 3.5-.18 4.81-1.49Z"/><path fill="#C3EF3C" d="M13.864 11.481a.5.5 0 0 1 .626.33l1.254 4.039 4.245-4.245a.5.5 0 0 1 .707.707l-4.244 4.244 4.048 1.255a.5.5 0 0 1-.296.955l-4.552-1.41-4.06 4.06 2.848.885a.5.5 0 1 1-.296.955l-3.352-1.04-2.226 2.226a.5.5 0 1 1-.707-.707l2.226-2.226-1.04-3.352A.5.5 0 0 1 10 17.86l.884 2.85 4.061-4.062-1.41-4.541a.5.5 0 0 1 .329-.626Z"/></svg>
